X: 7201
T: Circus, The
R: hornpipe
M: 4/4
K: Gmajor
A|:D2GF GABc|d2fd gdBG|E2cB AGFA|GFGE D/E/DC/B,/A,|
G,2GF GABc|d2fd gdBG|EGG/F/G AGFE|1 DGGF G3A:|2 DGGF G3A||
|:Bdgd cBcd|ec(3cBc AGAB|cea/g/f gdBd|cAFA DAFA|
Bdgd cBcd|egf/g/a gecG|EGG/F/G AGFE|1 DGGF G3A:|2 DGGF G3A||

